X: 1
T: The Foxhunters
O: trad Ireland
R: slipjig
B: Peter Barnes "english country dance tunes" v.2 p.46
M: 9/8
L: 1/8
K: G
d/c/ |:\
"G"B2B BGB "Am"c2A | "G"B2B BGB "D7"A2G |\
"G"B2B BGB "Am"c2A | "G"d2B GAB "D7"A2"(G)"G :|
|:\
"Am"A2e edc "Bm"Bcd | "Am"e2A "D7"ABc "G"BAG |\
"G"G2g gfe dBd | "G"g2G GAB "D7"A2"(G)" :|
